third_party/noto/noto_2/emoji_u1f4c3.svg

<svg enable-background="new 0 0 128 128" version="1.1" viewBox="0 0 128 128" xmlns="http://www.w3.org/2000/svg"><path d="m17.08 107.39v-100.81h94.87v99.47h-77.98c-0.88 0-1.63 0.62-1.79 1.48-0.68 3.69-2.91 12.97-8.31 12.97-2.91 0-6.79-3.66-6.79-13.11z" fill="#fff"/><g fill="none" stroke="#B0BEC5" stroke-linecap="round" stroke-miterlimit="10" stroke-width="3.8648"><line x1="33.34" x2="94.5" y1="28.42" y2="28.42"/><line x1="33.34" x2="94.5" y1="43.05" y2="43.05"/><line x1="33.34" x2="94.5" y1="57.68" y2="57.68"/><line x1="33.34" x2="94.5" y1="72.3" y2="72.3"/><line x1="33.34" x2="59.49" y1="86.93" y2="86.93"/></g><path d="m120.96 104.98h-7.18v-98.15c0-1.56-1.27-2.83-2.83-2.83h-93.89c-1.56 0-2.83 1.27-2.83 2.83v99.46c-0.01 4.83-0.87 17.71 14.29 17.71h80.85c11.49 0 13.15-12.4 13.36-17.18 0.05-1.01-0.76-1.84-1.77-1.84zm-102.72 1.31v-98.28h91.51v96.96h-76c-0.86 0-1.59 0.61-1.75 1.45-0.66 3.59-2.84 12.64-8.1 12.64-4.13 0-5.66-3.56-5.66-12.77z" fill="#6FBFF0"/></svg>

<?xml version="1.0" encoding="utf-8"?>
<!-- Generator: Adobe Illustrator 25.2.3, SVG Export Plug-In . SVG Version: 6.00 Build 0)  -->
<svg version="1.1" id="Layer_1" xmlns="http://www.w3.org/2000/svg" xmlns:xlink="http://www.w3.org/1999/xlink" x="0px" y="0px"
	 viewBox="0 0 128 128" style="enable-background:new 0 0 128 128;" xml:space="preserve">
<g>
	<path style="fill:#FFFFFF;" d="M17.08,107.39V6.58h94.87v99.47H33.97c-0.88,0-1.63,0.62-1.79,1.48
		c-0.68,3.69-2.91,12.97-8.31,12.97C20.96,120.5,17.08,116.84,17.08,107.39z"/>
	<g>
		<g>
			<g>
				
					<line style="fill:none;stroke:#B0BEC5;stroke-width:3.8648;stroke-linecap:round;stroke-miterlimit:10;" x1="33.34" y1="28.42" x2="94.5" y2="28.42"/>
				
					<line style="fill:none;stroke:#B0BEC5;stroke-width:3.8648;stroke-linecap:round;stroke-miterlimit:10;" x1="33.34" y1="43.05" x2="94.5" y2="43.05"/>
				
					<line style="fill:none;stroke:#B0BEC5;stroke-width:3.8648;stroke-linecap:round;stroke-miterlimit:10;" x1="33.34" y1="57.68" x2="94.5" y2="57.68"/>
				
					<line style="fill:none;stroke:#B0BEC5;stroke-width:3.8648;stroke-linecap:round;stroke-miterlimit:10;" x1="33.34" y1="72.3" x2="94.5" y2="72.3"/>
				
					<line style="fill:none;stroke:#B0BEC5;stroke-width:3.8648;stroke-linecap:round;stroke-miterlimit:10;" x1="33.34" y1="86.93" x2="59.49" y2="86.93"/>
			</g>
		</g>
	</g>
	<path style="fill:#6FBFF0;" d="M120.96,104.98h-7.18V6.83c0-1.56-1.27-2.83-2.83-2.83H17.06c-1.56,0-2.83,1.27-2.83,2.83v99.46
		C14.22,111.12,13.36,124,28.52,124h80.85c11.49,0,13.15-12.4,13.36-17.18C122.78,105.81,121.97,104.98,120.96,104.98z
		 M18.24,106.29V8.01h91.51v96.96H33.75c-0.86,0-1.59,0.61-1.75,1.45c-0.66,3.59-2.84,12.64-8.1,12.64
		C19.77,119.06,18.24,115.5,18.24,106.29z"/>
</g>
</svg>
